src/assets/duotone/Rotate3d.svg

<?xml version="1.0" encoding="UTF-8"?>
<svg width="24" height="24" viewBox="0 0 24 24" xmlns="http://www.w3.org/2000/svg">
 <path d="m7.5782 2.9119c-2.7691 0.64242-4.8282 3.1215-4.8282 6.0881 0 0.41421-0.33579 0.75-0.75 0.75s-0.75-0.33579-0.75-0.75c0-4.2842 3.4658-7.75 7.75-7.75 0.2702 0 0.51952 0.14534 0.65265 0.38047s0.12949 0.5237-0.00953 0.7554l-1.05 1.75c-0.21311 0.35518-0.6738 0.47036-1.029 0.25725-0.35518-0.21311-0.47036-0.6738-0.25725-1.029l0.27132-0.45219zm14.422 11.338c0.4142 0 0.75 0.3358 0.75 0.75 0 4.2842-3.4658 7.75-7.75 7.75-0.2702 0-0.5195-0.1453-0.6526-0.3805-0.1332-0.2351-0.1295-0.5237 0.0095-0.7554l1.05-1.75c0.2131-0.3552 0.6738-0.4703 1.029-0.2572 0.3551 0.2131 0.4703 0.6738 0.2572 1.029l-0.2713 0.4522c2.7691-0.6425 4.8282-3.1215 4.8282-6.0881 0-0.4142 0.3358-0.75 0.75-0.75z" clip-rule="evenodd" fill-rule="evenodd"/>
 <path d="m16.4 8.21-3.76-2.03c-0.4-0.21-0.87-0.21-1.27 0l-3.76 2.03c-0.27 0.15-0.43997 0.44-0.43997 0.77s0.16997 0.62 0.43997 0.77l3.76 2.03c0.2 0.11 0.42 0.16 0.64 0.16s0.44-0.05 0.64-0.16l3.76-2.03c0.27-0.15 0.44-0.44 0.44-0.77-0.01-0.33-0.18-0.62-0.45-0.77z"/>
 <path d="m10.74 12.47-3.5-1.75c-0.27-0.13-0.57999-0.12-0.83999 0.04s-0.41001 0.43-0.41001 0.73v3.31c0 0.57 0.32002 1.09 0.83002 1.34l3.5 1.75c0.12 0.06 0.2499 0.09 0.3899 0.09 0.16 0 0.31-0.04 0.45-0.13 0.26-0.16 0.4101-0.43 0.4101-0.73v-3.31c0-0.57-0.3101-1.08-0.8301-1.34z" opacity=".4"/>
 <path d="m17.59 10.76c-0.26-0.16-0.57-0.17-0.84-0.04l-3.5 1.75c-0.51 0.26-0.83 0.77-0.83 1.34v3.31c0 0.3 0.15 0.57 0.41 0.73 0.14 0.09 0.29 0.13 0.45 0.13 0.13 0 0.26-0.03 0.39-0.09l3.5-1.75c0.51-0.26 0.83-0.77 0.83-1.34v-3.31c0-0.3-0.15-0.57-0.41-0.73z" opacity=".4"/>
</svg>

<svg width="24" height="24" viewBox="0 0 24 24"  xmlns="http://www.w3.org/2000/svg">
<path fill-rule="evenodd" clip-rule="evenodd" d="M7.57821 2.91194C4.8091 3.55436 2.75 6.03342 2.75 9C2.75 9.41421 2.41421 9.75 2 9.75C1.58579 9.75 1.25 9.41421 1.25 9C1.25 4.71579 4.71579 1.25 9 1.25C9.2702 1.25 9.51952 1.39534 9.65265 1.63047C9.78578 1.8656 9.78214 2.15417 9.64312 2.38587L8.59313 4.13587C8.38002 4.49105 7.91933 4.60623 7.56414 4.39312C7.20896 4.18001 7.09378 3.71932 7.30689 3.36413L7.57821 2.91194ZM22 14.25C22.4142 14.25 22.75 14.5858 22.75 15C22.75 19.2842 19.2842 22.75 15 22.75C14.7298 22.75 14.4805 22.6047 14.3474 22.3695C14.2142 22.1344 14.2179 21.8458 14.3569 21.6141L15.4069 19.8641C15.62 19.5089 16.0807 19.3938 16.4359 19.6069C16.791 19.82 16.9062 20.2807 16.6931 20.6359L16.4218 21.0881C19.1909 20.4456 21.25 17.9666 21.25 15C21.25 14.5858 21.5858 14.25 22 14.25Z" />
<path d="M16.4004 8.20996L12.6404 6.17996C12.2404 5.96996 11.7704 5.96996 11.3704 6.17996L7.61038 8.20996C7.34038 8.35996 7.17041 8.64996 7.17041 8.97996C7.17041 9.30996 7.34038 9.59996 7.61038 9.74996L11.3704 11.78C11.5704 11.89 11.7904 11.94 12.0104 11.94C12.2304 11.94 12.4504 11.89 12.6504 11.78L16.4104 9.74996C16.6804 9.59996 16.8504 9.30996 16.8504 8.97996C16.8404 8.64996 16.6704 8.35996 16.4004 8.20996Z" />
<path opacity="0.4" d="M10.7402 12.4699L7.24023 10.7199C6.97023 10.5899 6.66024 10.5999 6.40024 10.7599C6.14024 10.9199 5.99023 11.1899 5.99023 11.4899V14.7999C5.99023 15.3699 6.31025 15.8899 6.82025 16.1399L10.3203 17.8899C10.4403 17.9499 10.5702 17.9799 10.7102 17.9799C10.8702 17.9799 11.0202 17.9399 11.1602 17.8499C11.4202 17.6899 11.5703 17.4199 11.5703 17.1199V13.8099C11.5703 13.2399 11.2602 12.7299 10.7402 12.4699Z" />
<path opacity="0.4" d="M17.5904 10.7599C17.3304 10.5999 17.0204 10.5899 16.7504 10.7199L13.2504 12.4699C12.7404 12.7299 12.4204 13.2399 12.4204 13.8099V17.1199C12.4204 17.4199 12.5704 17.6899 12.8304 17.8499C12.9704 17.9399 13.1204 17.9799 13.2804 17.9799C13.4104 17.9799 13.5404 17.9499 13.6704 17.8899L17.1704 16.1399C17.6804 15.8799 18.0004 15.3699 18.0004 14.7999V11.4899C18.0004 11.1899 17.8504 10.9199 17.5904 10.7599Z" />
</svg>
